X:1
T:Les tricotets
T:Menuet
T:Jean-Philippe Rameau
T:Suite en Sol Nr 3
T:2ème Menuet
C:Jean-Philippe Rameau
%%score { ( 1 4 ) | ( 2 3 5 ) }
L:1/8
Q:1/4=120
M:3/4
K:G
V:1 treble nm="Piano"
V:4 treble 
V:2 treble 
V:3 treble 
V:5 treble 
V:1
 ga b2 a2- | a2 d2 g2- | g2 Pfedc | Bc d4 | [EG]2 [Ac]2 [GB]2 | [ce]2 [Bd]2 g2- | gfedcB |{B} TA6 | %8
 ga b2 a2- | a2 d2 g2- | g2 Pfedc | Bc d4 | G2 c2 B2 | e2 d2 g2- | gfedcB |{B} TA6 |: ab c'2 b2- | %17
 b2 Pa2 g2- | g2 Pf2 e2- | e2 d4 | ^cdefgc | defgad | egfed^c | d2 =c4 |{c} TB6 | AcBABA | GcBABA | %27
 GABc d2 | e2 d2 g2- | g2 Pfedc | d2 e2{B} TA2 | G6 :|[K:Bb] Bc d2 d2 | (d2 g2) d2 | (d2 b2) de | %35
{d} (Tc3 =B c) z | ag^f=edc | Bc d4- | d2 PcBAG | ^F=E D4 | Bc d2 d2 | (d2 g2) d2 | (d2 b2) de | %43
{d} (Tc3 =B c) z | ag^f=edc | Bc d4- | d2 PcBAG | ^F=E D4 |: D=E ^F2 F2 | ^FG A2 A2 | AB c2 c2 | %51
 c6 | edcBAc | BAGABc | d=efd g2 |{g} T^f6 | ba g2 f2 | ed c2 B2 | AG ^F2 =E2 | D6 | =E^FGABG | %61
 A^FG=EFD | dG A2{G} T^F2 | G6 :| %64
V:2
 Bc d2 c2- | c4 B2- | B2 A2 F2 | GA B4 | C2 A,2 E2 | C2 G2 D2 | E6 |[K:bass] D3 CB,A, | %8
 B,C D2 C2- | C4 B,2- | B,2 A,2 F,2 | G,A, B,2- B,2 | E,2 A,2 G,2 | C2 B,2 G,2- | G,4 G,2 | %15
 F,2 z2 D,2 |: D6 | D6 | D6 | D6 | x6 | x6 | x6 | x6 |[I:staff -1] GDC[I:staff +1]B,A,G, | C4 D2 | %26
 E2 C2 D2 | E2 PDC B,2 | C2 B,2 G,2 | D6 | G,2- G,2 F,2 | G,,6 :|[K:Bb] x6 | x6 | x2 G,2 x2 | x6 | %36
 x6 | x6 | x6 | x2 z CPB,A, | G,A, B,2 B,2 | (B,2 G,2) B,2 | (B,2 G,2) B,2 | A,6 | A,6 | %45
 G,A, B,2 [D,G,]2 | G,4 E,2 | D,4 D,,2 |: z6 | x6 | D6 | A,4 z2 | z2 z2 [A,D]2 | D6- | D4 C2 | %55
 [A,D]4 D,,2 | x6 | x4 B,2 | A,G, ^F,2 =E,2 | D,6 | [=E,G,]6 | [D,^F,A,]6 | [D,G,]2 E,2 D,2 | %63
 G,,6 :| %64
V:3
 G6 | F2 G4 | D6 | E4 B,2 | x6 | x4 B,2 | C6 |[K:bass] x6 | G,6 | F,2 G,4 | D,6 | E,2 B,2 B,,2 | %12
 C,2 A,,2 E,2 | C,2 G,2 B,,2 | [C,E,]6 | D,4- D,,2 |: x6 | x6 | x6 | x6 | x6 | x6 | x6 | x6 | x6 | %25
 x6 | x6 | x6 | x6 | z2 D,2 [F,A,]2 | G,2 C,2 D,2 | z2 z D,,- D,,2 :|[K:Bb] x6 | x6 | x6 | x6 | %36
 x6 | x6 | x6 | x6 | x4 G,2 | G,2 B,,2 G,2 | G,2 G,,2 G,2 | G,6 | ^F,6 | x4 B,,2 | [C,E,]4 C,2 | %47
 z2 z2 x2 |: x6 | x6 | x6 | A,2- A,/C/[I:staff -1]E/^F/ x2 | x4[I:staff +1] ^F,2 | %53
 [G,B,]4 [G,B,]2 | [F,A,]4 [_E,G,]2 | D,4- D,2 | x6 | x6 | x6 | x6 | ^C,6 | =C,6 | B,,2 C,2 D,2 | %63
 z2 z D,, G,,,2 :| %64
V:4
 x6 | x6 | x6 | x6 | x6 | x4 G2- | G4 G2 | F4 z2 | x6 | x6 | x6 | x6 | x6 | x6 | x6 | x6 |: %16
 FG A2 G2- | G2 c2 B2- | B2 A2 G2- | G2 F2 A2 | [EG]6 | [FA]6 | [GB]4 A2 | FAGFED | x6 | x6 | x6 | %27
 x6 | x6 | x6 | x6 | z D- [B,D]4 :|[K:Bb] GA B2 [GB]2 | ([GB]2 [B,G]2) [GB]2 | ([GB]2 G2) [GB]2 | %35
 [GA]6 | [^FA]6 | GA B2[I:staff +1] [B,D]2 |[I:staff -1] [CE]4 [CE]2 | D2 x4 | x6 | x6 | x6 | x6 | %44
 x6 | x6 | x6 | x6 |: x6 | D=E ^F2 F2 | ^FG A2 A2 | c/A/^F/E/ x4 | x6 | x6 | x6 | x6 | BA G2 F2 | %57
 ED C2 x2 | x6 | x6 | x6 | x6 | x6 | z D- [B,D]4 :| %64
V:5
 x6 | x6 | x6 | x6 | x6 | x6 | x6 |[K:bass] x6 | x6 | x6 | x6 | x6 | x6 | x6 | x6 | x6 |: x6 | x6 | %18
 x6 | x6 | x6 | x6 | x6 | x6 | x6 | x6 | x6 | x6 | x6 | x6 | x6 | x4 G,,,2 :|[K:Bb] x6 | x6 | x6 | %35
 x6 | x6 | x6 | x6 | x6 | x6 | x6 | x6 | x6 | x6 | x6 | x6 | x6 |: x6 | x6 | x6 | x6 | x6 | x6 | %54
 x6 | x6 | x6 | x6 | x6 | x6 | x6 | x6 | x6 | x6 :| %64

